img/refund__04.svg

<svg width="38" height="38" viewBox="0 0 38 38" fill="none" xmlns="http://www.w3.org/2000/svg">
<g clip-path="url(#clip0)">
<path d="M23.4531 19.2969C23.0435 19.2969 22.7109 19.6294 22.7109 20.0391C22.7109 20.4487 23.0435 20.7812 23.4531 20.7812C23.8628 20.7812 24.1953 20.4487 24.1953 20.0391C24.1953 19.6294 23.8628 19.2969 23.4531 19.2969Z" fill="white"/>
<path d="M7.58322 27.445L0.161344 36.7966C-0.0157957 37.0195 -0.0494261 37.3242 0.0743685 37.5805C0.198163 37.8371 0.457929 38 0.742627 38H37.2583C37.543 38 37.8027 37.8371 37.9265 37.5805C38.0506 37.3242 38.0167 37.0195 37.8395 36.7966L30.4177 27.445C30.2771 27.2676 30.0628 27.1641 29.8364 27.1641H23.335L28.8855 18.4584C30.1875 16.5064 30.8754 14.23 30.8754 11.875C30.8754 5.32722 25.5485 0 19.0004 0C12.4524 0 7.12544 5.32722 7.12544 11.875C7.12544 14.23 7.81341 16.5061 9.11543 18.4584L14.6659 27.1641H8.1645C7.93808 27.1641 7.72412 27.2676 7.58322 27.445ZM4.81219 33.3242H9.29982L6.7671 36.5156H2.27919L4.81219 33.3242ZM15.6125 28.6484L17.6471 31.8398H12.3729L14.9059 28.6484H15.6125ZM22.3887 28.6484H23.0952L25.6279 31.8398H20.3541L22.3887 28.6484ZM26.8062 33.3242L29.3389 36.5156H8.662L11.195 33.3242H26.8062ZM31.2341 36.5156L28.7011 33.3242H33.189L35.7217 36.5156H31.2341ZM32.0108 31.8398H27.5231L24.9901 28.6484H29.478L32.0108 31.8398ZM10.3545 17.6409C9.21313 15.9321 8.60981 13.9383 8.60981 11.875C8.60981 6.14566 13.2711 1.48438 19.0004 1.48438C24.7298 1.48438 29.3911 6.14566 29.3911 11.875C29.3911 13.9383 28.7877 15.9321 27.6466 17.6409C27.6434 17.6452 27.6408 17.6496 27.6379 17.6539C27.1506 18.4184 19.3759 30.6129 19.0004 31.2014C18.0562 29.7203 11.3246 19.1621 10.3629 17.6539C10.3603 17.6496 10.3574 17.6452 10.3545 17.6409ZM13.0108 28.6484L10.478 31.8398H5.99012L8.52313 28.6484H13.0108Z" fill="white"/>
<path d="M22.1265 21.8293C21.7757 21.6177 21.3193 21.7308 21.1077 22.0818L18.3645 26.633C18.1528 26.984 18.2659 27.4401 18.617 27.6517C18.9695 27.8642 19.425 27.7488 19.6358 27.3992L22.379 22.8481C22.5906 22.497 22.4775 22.041 22.1265 21.8293Z" fill="white"/>
<path d="M19 19.2969C23.0745 19.2969 26.4219 15.9973 26.4219 11.875C26.4219 7.78253 23.0925 4.45312 19 4.45312C14.9075 4.45312 11.5781 7.78253 11.5781 11.875C11.5781 15.9985 14.9267 19.2969 19 19.2969ZM19 5.9375C22.274 5.9375 24.9375 8.60097 24.9375 11.875C24.9375 15.1795 22.2526 17.8125 19 17.8125C15.7466 17.8125 13.0625 15.1795 13.0625 11.875C13.0625 8.60097 15.726 5.9375 19 5.9375Z" fill="white"/>
</g>
<defs>
<clipPath id="clip0">
<rect width="38" height="38" fill="white"/>
</clipPath>
</defs>
</svg>

<svg width="38" height="38" fill="none" xmlns="http://www.w3.org/2000/svg"><g clip-path="url(#clip0)" fill="#fff"><path d="M23.453 19.297a.743.743 0 100 1.485.743.743 0 000-1.485z"/><path d="M7.583 27.445L.161 36.797A.742.742 0 00.743 38h36.515a.742.742 0 00.581-1.203l-7.421-9.352a.742.742 0 00-.582-.28h-6.501l5.55-8.707a11.824 11.824 0 001.99-6.583C30.875 5.327 25.55 0 19 0 12.452 0 7.125 5.327 7.125 11.875c0 2.355.688 4.631 1.99 6.583l5.55 8.706h-6.5a.742.742 0 00-.582.281zm-2.77 5.88H9.3l-2.533 3.19H2.28l2.533-3.19zm10.8-4.677l2.034 3.192h-5.274l2.533-3.192h.707zm6.776 0h.706l2.533 3.192h-5.274l2.035-3.192zm4.417 4.676l2.533 3.192H8.662l2.533-3.192h15.611zm4.428 3.192l-2.533-3.192h4.488l2.533 3.192h-4.488zm.777-4.676h-4.488l-2.533-3.192h4.488l2.533 3.192zm-21.657-14.2a10.346 10.346 0 01-1.744-5.765c0-5.73 4.661-10.39 10.39-10.39 5.73 0 10.391 4.66 10.391 10.39a10.35 10.35 0 01-1.744 5.766l-.01.013L19 31.2a460064.98 460064.98 0 00-8.646-13.56zm2.657 11.008l-2.533 3.192H5.99l2.533-3.192h4.488z"/><path d="M22.127 21.83a.742.742 0 00-1.02.252l-2.742 4.551a.742.742 0 101.27.766l2.744-4.55a.742.742 0 00-.253-1.02zM19 19.297c4.075 0 7.422-3.3 7.422-7.422 0-4.092-3.33-7.422-7.422-7.422s-7.422 3.33-7.422 7.422c0 4.123 3.349 7.422 7.422 7.422zm0-13.36a5.944 5.944 0 015.938 5.938 5.938 5.938 0 01-11.875 0A5.944 5.944 0 0119 5.937z"/></g><defs><clipPath id="clip0"><path fill="#fff" d="M0 0h38v38H0z"/></clipPath></defs></svg>
